X: 351
T: The Kirrie 'Sheuch'
T: (The Kirriemuir Fiddlers)
C: Bert Murray
R: strathspey
B: Bert Murray's "Bon Accord Collection" 1999 p.35
%
Z: 2011 John Chambers <jc:trillian.mit.edu>
M: C
L: 1/16
K: F
%%slurgraces
uC2 |\
FEF2 (.C3.B,) A,3CF3A | cde2 fcB2 AF3 F3A | GFG2 (.D3.C) B,3DG3F | E3Gc3B d3cB3G |
F2EF (.C3.B,) A,3CF3A | c2de f2cB AF3 F3E | D3FB3D C3FA3F | EFG2 (.c3.B) (AF3) {DE}F4 ||
c3AF3A c3FA3c | B3df3d cA3 A3c | B3DF3B A3CF3A | G3c=B3d cdc2 _BAG2 |
c3AF3A c3FA3c | B3df3d cA3 A3c | BAB2 dcB2 A3FC3F | EFG2 (.c3.B) (AF3) {DE}F4 |]
